lib/healthicons/icons/solid/symbols/book.svg

<svg fill="none" height="48" viewBox="0 0 48 48" width="48" xmlns="http://www.w3.org/2000/svg"><path clip-rule="evenodd" d="m9 10c0-2.76142 2.2386-5 5-5h24c.5523 0 1 .44772 1 1v30c0 .5523-.4477 1-1 1h-24c-1.6569 0-3 1.3431-3 3v1h27v2h-28c-.55228 0-1-.4477-1-1zm14 16v-5h-5v-2h5v-5h2v5h5v2h-5v5z" fill="#333" fill-rule="evenodd"/></svg>

<svg width="48" height="48" viewBox="0 0 48 48" fill="none" xmlns="http://www.w3.org/2000/svg">
<path fill-rule="evenodd" clip-rule="evenodd" d="M9 10C9 7.23858 11.2386 5 14 5H38C38.5523 5 39 5.44772 39 6V36C39 36.5523 38.5523 37 38 37H14C12.3431 37 11 38.3431 11 40V41H38V43H10C9.44772 43 9 42.5523 9 42V10ZM23 26V21H18V19H23V14H25V19H30V21H25V26H23Z" fill="#333333"/>
</svg>
